X: 1828
T: Ardvasar Blacksmith, The
R: reel
M: 4/4
K: Bminor
ce|fBBc d2 ed|c2 AB cAce|fBBc d2 ec|Afec B2:|
de|faag f2 ed|c2 AB cAce|faag f2 ec|Afec B2 de|
faag f2 ed|c2 AB cAce|fBBc d2 ec|Afec B2||
ce|fB B/B/B dBed|cAAB cAce|fB B/B/B dBec|Afec B2:|
de|faag fded|cAAB cAce|faag fdec|Afec B2 de|
faag fded|cAAB cAce|fBBc d2 ec|Afec B2||

